Simply-Purple-Circles/scalable/apps/nicotine-plus.svg

<?xml version="1.0" encoding="UTF-8" standalone="no"?><svg xmlns:dc="http://purl.org/dc/elements/1.1/" xmlns:cc="http://creativecommons.org/ns#" xmlns:rdf="http://www.w3.org/1999/02/22-rdf-syntax-ns#" xmlns="http://www.w3.org/2000/svg" width="48" height="48" viewBox="0 0 12.7 12.7"><metadata><rdf:RDF><cc:Work><dc:format>image/svg+xml</dc:format><dc:type rdf:resource="http://purl.org/dc/dcmitype/StillImage"/><dc:title/></cc:Work></rdf:RDF></metadata><path d="M6.34.07a6.29 6.29 0 0 0-6.28 6.3 6.29 6.29 0 0 0 6.28 6.28 6.29 6.29 0 0 0 6.3-6.29A6.29 6.29 0 0 0 6.33.07zm-.01.94a5.4 5.4 0 0 1 5.4 5.4 5.4 5.4 0 0 1-5.4 5.41 5.4 5.4 0 0 1-5.41-5.4A5.4 5.4 0 0 1 6.32 1zM4.17 2.9H3v6.55h1.4V4.32c.27.01.5.03.62.06.21.06.2.04.29.24.18.42.26 1.92.26 4.84h1.4L7 8.26h1.17v1.18h1.4V8.27h1.17v-1.4H9.56V5.68h-1.4v1.17H6.99a7.25 7.25 0 0 0-.38-2.8 1.9 1.9 0 0 0-1.24-1.04c-.3-.08-.62-.1-.96-.1V2.9H4.2h-.02z" fill="#963996" fill-opacity=".99"/></svg>

<?xml version="1.0" encoding="UTF-8" standalone="no"?>
<svg
   xmlns:dc="http://purl.org/dc/elements/1.1/"
   xmlns:cc="http://creativecommons.org/ns#"
   xmlns:rdf="http://www.w3.org/1999/02/22-rdf-syntax-ns#"
   xmlns:svg="http://www.w3.org/2000/svg"
   xmlns="http://www.w3.org/2000/svg"
   xmlns:sodipodi="http://sodipodi.sourceforge.net/DTD/sodipodi-0.dtd"
   xmlns:inkscape="http://www.inkscape.org/namespaces/inkscape"
   width="48"
   height="48"
   viewBox="0 0 12.7 12.7"
   version="1.1"
   id="svg6"
   sodipodi:docname="nicotine-plus.svg"
   inkscape:version="0.92.4 (5da689c313, 2019-01-14)">
  <defs
     id="defs10" />
  <sodipodi:namedview
     pagecolor="#ffffff"
     bordercolor="#666666"
     borderopacity="1"
     objecttolerance="10"
     gridtolerance="10"
     guidetolerance="10"
     inkscape:pageopacity="0"
     inkscape:pageshadow="2"
     inkscape:window-width="1087"
     inkscape:window-height="480"
     id="namedview8"
     showgrid="false"
     inkscape:zoom="4.9166667"
     inkscape:cx="2.1355932"
     inkscape:cy="24"
     inkscape:window-x="0"
     inkscape:window-y="25"
     inkscape:window-maximized="0"
     inkscape:current-layer="svg6" />
  <metadata
     id="metadata2">
    <rdf:RDF>
      <cc:Work>
        <dc:format>image/svg+xml</dc:format>
        <dc:type
           rdf:resource="http://purl.org/dc/dcmitype/StillImage" />
        <dc:title></dc:title>
      </cc:Work>
    </rdf:RDF>
  </metadata>
  <path
     d="M 6.34,0.07 A 6.29,6.29 0 0 0 0.06,6.37 6.29,6.29 0 0 0 6.34,12.65 6.29,6.29 0 0 0 12.64,6.36 6.29,6.29 0 0 0 6.33,0.07 Z M 6.33,1.01 a 5.4,5.4 0 0 1 5.4,5.4 5.4,5.4 0 0 1 -5.4,5.41 A 5.4,5.4 0 0 1 0.92,6.42 5.4,5.4 0 0 1 6.32,1 Z M 4.17,2.9 H 3 V 9.45 H 4.4 V 4.32 c 0.27,0.01 0.5,0.03 0.62,0.06 0.21,0.06 0.2,0.04 0.29,0.24 0.18,0.42 0.26,1.92 0.26,4.84 h 1.4 L 7,8.26 h 1.17 v 1.18 h 1.4 V 8.27 h 1.17 V 6.87 H 9.56 V 5.68 H 8.16 V 6.85 H 6.99 A 7.25,7.25 0 0 0 6.61,4.05 1.9,1.9 0 0 0 5.37,3.01 C 5.07,2.93 4.75,2.91 4.41,2.91 V 2.9 H 4.2 4.18 Z"
     id="path4"
     inkscape:connector-curvature="0"
     style="fill:#963996;fill-opacity:0.98999999" />
</svg>
